X:2320
T:Goodman's Fields Hornpipe
O:england
M:3/2
L:1/8
K:D
P:1
B,4 DEFE DCB,^A,   | B2 GF EDCB, ^A,4 | f2 bf =afge fdec  | d2 gf edcB ^A2 F2 |
B,4 DEFE DCB,^A,   | B2 GF EDCB, ^A,4 | fede   fdcd ecBc  | dcdB  F2   ^A2 B4 ||
P:2
D4 F=ABc dcdA   | Bcdc  BAGF  E4 | E4     GBcd edec  | dfgf  edcB    ^A4 |
b2 =ag fedc Bdfb| a2 gf edcB Acea| g2 fe  dcB^A B2 fe| dcBd  F2   ^A2  B4|]
